X: 37768
T: Son Of God They Did Betray, The
R: reel
M: 4/4
K: Eminor
E2|A2 BA GA B2|c2 cA B2 cd|e2 A2 AB cA|BA GF E2 E2|
A2 BA GA B2|c2 cA B2 cd|e2 e2 fe d2|e6 cd|
e3c d2 e2|c2 cA B2 cd|e2 A2 AB cA|BA GF E2 E2|
A2 BA GA B2|c2 cA B2 cd|e2 e2 fe d2|e6||

